X: 9375
T: Dancing The Baby
R: barndance
M: 4/4
K: Dmajor
|:Bddd cddd|BddB cB A2|Bddd cddB|(3GGG GA BA G2|
Bddd cddd|BddB cB A2|G2 GB AGAB|1 G2 GFG G2 GA:|2 G2 GF G2 de||
|:gdBd edBd|gdBd cBAd|gdBd edBA|GABc defd|
gdBd edBd|gdBd cBAB|(3GGG GB AGAB|1 G2 GF G2 de:|2 G2 GF G2 GA||
|:Bddd cddd|BddB AG F2|BddB cedc|BA G2 FE D2|
Bddd cddd|BddB AG F2|(3GGG GB AGAB|1 G2 GF G2GA:|2 G2 GF G2 de||
|:gdBd edBd|gdBd cBAd|gdBd edBB|B2_B2 A4|
gdBd edBd|gdBd cBAB|(3GGG GB AGAB|1 G2 GF G2de:|2 G2 FG G2GA||

